X:1
T:Come pianta, ch'a poco a poco manca
T:Orlando Lasso
T:Prima parte
T:Come pianta, ch'a poco a poco manca
C:Orlando Lasso
Z:Gabriele Fiamma
%%score [ 1 2 3 4 ]
L:1/8
Q:1/4=96
M:2/2
K:C
V:1 alto1 nm="Cantus" snm="C"
V:2 alto nm="Altus" snm="A"
V:3 tenor nm="Tenor" snm="T"
V:4 bass nm="Basso" snm="B"
V:1
 x8 | z2 z2 z2 x2 |[M:4/2][K:treble] z8 z4 E4- | E2 E2 G8 E4 | B2 B2 d4 B8 | z2 c2 c4 B2 G4 G2 | %6
w: ||Co-|* me pian- ta,|Co- me pian- ta,|ch'a po- co a po- co|
 E4 D4 z2 ^C2 C2 D2 | E6 D2 F2 F2 c4- | c2 B2 A4 ^G8 | A4 B2 c3 B B2 A4 | ^G2 A2 B2 c4 c2 z2 B2- | %11
w: man- ca, Del nu- tri-|men- t',on- d'e- ra ver-|* de e vi- va,|Quan- to flo- ri- da e fre-|sca al- to sa- li- va, Tan-|
 B2 G2 G4 E2 C2 B,4 | C4 B,2 E2 E8 | ^C4 z2 D2 D6 E2 | F6 F2 D4 ^C2 D2 | F2 G4 G2 A2 G3 ^F/E/ F2 | %16
w: * to chi- na giu il ca-|po,el cri- ne im- bian-|ca: Co- si il vi-|gor man- can- do,on- d'e-|ra fran- ca Mia vi- * * *|
 G4 z2 G2 AGAB c2 B2 | c2 A2 G2 G2 F4 E4 | G4 G4 ^F2 G4 E2 | A4 D3 E F2 E2 G4 | c3 BAB c4 BA B4 | %21
w: ta, e lie- * * * * ta|nel suo a- pril fio- ri- va,|Que- sta mia sec- ca|spo- glia e * * d'hu- mor|pri- * * * * * * *|
 c4 G4 A4 z2 ^F2 | G4 z2 E2 F4 D2 D2- | D2 D2 D8 ^C4 | D16 | ^C16 |] z8 E4 G2 G2 | %27
w: va Sen- to pian|pian, pian pian chi- nar-|* si,e gra- ve e|stan-|ca.|Per- che qual|
 A2 B2 E4 G4 F2 F2 | E6 DC D8 | E4 z2 c4 B4 c2 | A2 A2 G2 G2 ^F2 G2 A4 | %31
w: pe- re- grin, ch'a not- te al-|ber- * * *|ga E pen- sa|del ca- min quan- to gli a- van-|
 !courtesy!=B4 z2 G4 A2 G2 FE | A2 G2 G6 F2 E4 | D4 z4 z2 G2 ^F2 G2 | A2 G2 z2 G2 E2 G4 A2 | %35
w: za, Che di for- nir- lo in|bre- v'è il suo con- si-|glio, Va tu, pen-|san- do a que- sta bre-|
 ^G2 A4 G2 A8 | A6 A2 ^F4 F2 F2 | G2 G2 A2 B2 c4 d4 | z2 c4 B2 e4 E4 | E4 z2 c4 B2 e4 | %40
w: ve stan- * za,|A- ni- ma,ho- mai, si|che su l'a- le t'er- ga,|Lun- gi da sti-|ge, Lun- gi da|
 E4 E2 F4 E2 A4 | G4 c8 B4- | B4 A8 G4- | G4 F4 E8 | E16 |] %45
w: sti- ge, Lun- gi da|sti- ge,e dal|* e- ter-|* no e- si-|glio!|
V:2
 x8 | z2 z2 z2 x2 |[M:4/2][K:treble] A,6 A,2 C8 | A,4 E6 E2 G4 | D2 D4 D2 G4 G4 | %5
w: ||Co- me pian-|ta, Co- me pian-|ta, Co- me pian- ta,|
 z2 G2 G4 G2 E4 D2 | C4 B,4 z2 A,2 A,2 A,2 | C6 B,2 C2 D2 E2 F2 | E8 E4 z2 E2- | %9
w: ch'a po- co a po- co|man- ca, Del nu- tri-|men- t',on- d'e- ra ver- de e|vi- va, Quan-|
 E2 ^F2 G3 G, G,2 G3 =F/E/ F2 | E4 G3 G G2 A2 z2 G2- | G2 D2 E4 B,2 A,2 ^G,4 | %12
w: * to flo- ri- da e fre- * * *|sca al- to sa- li- va, Tan-|* to chi- na giu il ca-|
 A,4 z2 A,2 ^G,2 A,2 B,4 | E4 z2 A,2 A,6 C2 | C4 D4 B,4 A,4 | D2 E2 D4 F2 E2 D3 C | %16
w: po, el cri- ne im- bian-|ca: Co- si il vi-|gor man- can- do,on-|d'e- ra fran- ca Mia vi- *|
 B,2 B,2 DCDE F4 E2 G2- | G2 F2 E2 E2 D4 ^C4 | z2 E4 E2 D4 G,2 C2 | C3 B,/A,/ B,4 C4 D2 E2- | %20
w: * ta,e lie- * * * * ta nel|* suo a- pril fio- ri- va,|Que- sta mia sec- ca|spo- * * * glia e d'hu- mor|
 ED E2 FEED/C/ D8 | E4 E4 C2 C2 D4 | z2 B,2 C4 z2 A,2 _B,4- | B,4 A,4 A,4 A,4 | F,8 G,8 | A,16 |] %26
w: * * * pri- * * * * *|va Sen- to pian pian,|pian pian chi- nar-|* si,e gra- ve e|stan- *|ca.|
 z4 E4 G4 C2 B,2 | A,2 G,2 z2 C2 D2 E2 A,4 | C4 G,2 A,2 G,8 | G,4 G4 G4 G4 | %30
w: Per- che qual pe-|re- grin, qual pe- re- grin,|ch'a not- te al- ber-|ga E pen- sa|
 F2 F2 E2 E2 D2 B,2 D4 | D4 B,4 C2 F2 DE C2- | C2 E4 D2 ^C2 D4 C2 | D8 z2 E2 D2 E2 | %34
w: del ca- min quan- to gli a- van-|za, Che di for- nir- lo in bre-|* v'è il suo con- si- *|glio, Va tu, pen-|
 F2 D2 D2 D2 z2 E2 E3 E | E2 D2 E4 E4 F4- | F2 F2 E4 D4 D4 | C2 E2 D2 D2 E4 F2 D2 | %38
w: san- d'a que- sta a que- sta|bre- ve stan- za, A-|* ni- ma,ho- mai, si|che su l'a- le t'er- ga, su|
 E2 ^F2 G4 G4 z2 C2- | C2 B,2 E4 D4 C4 | G2 C2 C4 C4 z2 F2- | F2 E2 A4 G8 | E6 E2 E4 E4- | %43
w: l'a- le t'er- ga, Lun-|* gi da sti- ge,e|dal e- ter- no, Lun-|* gi da sti-|ge,e dal e- ter-|
 E4 D4 C8 | B,16 |] %45
w: * no e- si-|glio!|
V:3
 x8 | z2 z2 z2 x2 |[M:4/2][K:treble-8] z8 A6 A2 | c8 B8 | z4 B2 B2 d4 d4 | z2 e2 e4 d2 c4 B2 | %6
w: ||Co- me|pian- ta,|Co- me pian- ta,|ch'a po- co a po- co|
 G4 G4 z2 E2 E2 F2 | G4 G4 A6 F2 | A2 B2 c4 B8 | c4 d2 e3 d d2 d4 | B2 c2 d2 e4 f2 z2 d2- | %11
w: man- ca, Del nu- tri-|men- t',on- d'e- ra|ver- de e vi- va,|Quan- to flo- ri- da e fre-|sca al- to sa- li- va, Tan-|
 d2 B2 B4 G2 E2 E4- | E2 e4 c2 B2 A4 ^G2 | A4 z2 ^F2 F6 G2 | A6 A2 G4 E2 F2 | A2 c3 B/A/ B2 c4 A4 | %16
w: * to chi- na giu il ca-|* po,el cri- ne im- bian- *|ca: Co- si il vi-|gor man- can- do,on- d'e-|ra fran- * * * ca Mia|
 d2 d2 GABG d2 d2 c2 d2 | e2 dc B2 c2 A6 A2 | B4 c2 B4 G2 E2 G2- | G^F/E/ F2 G4 A4 B2 c2- | %20
w: vi- ta,e lie- * * * * ta nel suo a-|pril * * * fio- ri- va,|Que- sta mia sec- ca spo-|* * * * glia e d'hu- mor pri-|
 cBAGFG A2 G4 G4- | G4 c4 z2 A2 !courtesy!=B4 | z2 G2 A6 F2 F4 | G4 F8 E4 | D16 | E16 |] %26
w: * * * * * * * va Sen-|* to pian pian,|pian pian chi- nar-|si,e gra- ve e|stan-|ca.|
 A4 c6 B2 e2 e2 | d4 z2 A2 B2 c2 d2 d2 | G2 G2 c6 BA B4 | c4 e4 d4 e2 c2 | %30
w: Per- che qual pe- re-|grin, qual pe- re- grin, ch'a|not- te al- ber- * * *|ga E pen- sa del|
 c2 d2 B2 c2 A2 G3 ^F/E/ F2 | G4 d4 e2 d2 Bc A2 | F2 c4 B2 A4 A4 | z2 B2 A2 B2 c2 B2 z4 | %34
w: ca- min quan- to gli a- van- * * *|za, Che di for- nir- lo in bre-|v'è il suo con- si- glio,|Va tu, pen- san- do,|
 z2 B2 A2 B2 c2 B2 c3 c | B2 A2 B4 ^c4 d4- | d2 d2 A4 A8 | z4 ^F4 G2 G2 A2 B2 | c4 d4 c4 G2 A2 | %39
w: Va tu, pen- san- d'a que- *|bre- ve stan- za, A-|* ni- ma,ho- mai,|si che su l'a- le|t'er- ga, Lun- gi da|
 G8 G8 | z2 A4 F2 A4 c4- | c4 e6 e2 e4 | c8 B8 | A16 | ^G16 |] %45
w: sti- ge,|Lun- gi da sti-|* ge,e dal e-|ter- no e-|si-|glio!|
V:4
 x8 | z2 z2 z2 x2 |[M:4/2] z16 | z8 E,6 E,2 | G,8 G,8 | z2 C,2 C,4 G,2 C,4 G,2 | %6
w: |||Co- me|pian- ta,|ch'a po- co a po- co|
 C,4 G,,4 z2 A,,2 A,,2 D,2 | C,6 G,2 F,2 D,2 A,4- | A,2 ^G,2 A,4 E,8 | A,4 G,2 C,3 G,, G,,2 D,4 | %10
w: man- ca, Del nu- tri-|men- t',on- d'e- ra ver-|* de e vi- va,|Quan- to flo- ri- da e fre-|
 E,2 A,2 G,2 C4 F,2 z2 G,2- | G,2 G,2 E,4 E,2 A,,2 E,,4 | A,,4 ^G,,2 A,,2 E,8 | %13
w: sca al- to sa- li- va, Tan-|* to chi- na giu il ca-|po,el cri- ne im- bian-|
 A,,4 z2 D,2 D,6 C,2 | F,4 D,4 G,,4 A,,2 D,2- | D,2 C,2 G,4 F,2 C,2 D,4 | %16
w: ca: Co- si il vi-|gor man- can- do,on- d'e-|* ra fran- ca Mia vi-|
 G,,4 z2 G,2 D,E,F,D, A,2 G,2 | C,2 D,2 E,2 C,2 D,4 A,,4 | E,4 E,2 E,2 B,,4 C,4 | A,,4 G,,4 z8 | %20
w: ta, e lie- * * * * ta|nel suo a- pril fio- ri- va,|Que- sta mia sec- ca|spo- glia,|
 z16 |"^Secunda parte" C,8 F,4 z2 D,2 | E,4 z2 C,2 D,4 _B,,2 B,,2- | B,,2 G,,2 D,4 A,,8 | _B,,16 | %25
w: |Sen- to pian|pian, pian pian chi- nar-|* si,e gra- ve e|stan-|
 A,,16 |] z4 A,,4 E,4 z2 E,2 | ^F,2 G,2 A,3 A, G,2 E,2 D,4 | C,8 z8 | C,8 G,4 E,4 | %30
w: ca.|Per- che qual|pe- re- grin, ch'a not- te al- ber-|ga|E pen- sa|
 F,2 D,2 E,2 C,2 D,2 E,2 D,4 | G,,8 z8 | z16 | z2 G,2 ^F,2 G,2 A,2 E,2 z4 | %34
w: del ca- min quan- to gli a- van-|za,||Va tu, pen- san- do,|
 z2 G,2 ^F,2 G,2 A,2 E,2 C,2 A,,2 | E,2 F,2 E,4 A,4 D,4- | D,2 D,2 ^C,4 D,8 | %37
w: Va tu, pen- san- d'a que- sta|bre- ve stan- za, A-|* ni- ma,ho- mai,|
 z4 D,4 C,2 E,2 D,2 D,2 | A,4 G,4 z2 C,4 A,,2 | E,4 C,4 G,,4 C,4- | C,2 A,,2 A,4 A,,4 F,,4 | %41
w: si che su l'a- le|t'er- ga, Lun- gi|da sti- ge, Lun-|* gi da sti- ge,e|
 C,4 A,,4 E,8 | E,16 | A,,16 | E,16 |] %45
w: dal e- ter-|no e-|si-|glio!|

